X:66
T:Jigs simple chords 288
M:3/4
L:1/8
K:D
f/g/[aD,F,A,] ba a2 | f[dD,F,A,] ed d2 | B[AD,F,A,] BA A2 | F2<[A2E,2G,2B,2] Af | g[aD,F,A,] ba a2 |
f[dD,F,A,] ed d2 | B[AD,F,A,] BA Ad | f2<[e2E,2G,2B,2] ef | g[aD,F,A,] ba a2 |
f[dD,F,A,] ed d2 | B[AD,F,A,] BA A2 | F2<[A2D,2F,2A,2] A3 |[BG,B,D] cd dc |
B[AD,F,A,] df a2 | a[bE,G,B,] ag f2 | e2<[d2D,2F,2A,2] A2 | F2<[D2D,2F,2A,2] DF |
A2<[d2D,2F,2A,2] d2 | c[BG,B,D] ^AB d2 | B[AA,CEG] BA GF | E2<[D2D,2F,2A,2] DF |
A2<[d2B,2D2F2] d2 | c[BE,G,B,] cB A2 | F2<[E2A,2C2E2G2] F2 | E2<[D2D,2F,2A,2] DF |
A2<[d2D,2F,2A,2] d2 | c[BG,B,D] ^AB d2 | B2<[A2D,2F,2A,2=C2] A3 |[BG,B,D] cd dc |
B[AD,F,A,] df a2 | a[bE,G,B,] ag f2 | e2<[d2D,2F,2A,2] d2 |


